src/assets/images/icons/networks/arbitrum-one.svg

<svg width="200" height="200" viewBox="0 0 200 200" fill="none" xmlns="http://www.w3.org/2000/svg">
<path d="M122.53 91.6383L137.218 66.7154L176.808 128.377L176.826 140.211L176.697 58.7802C176.603 56.789 175.546 54.9675 173.86 53.8932L102.584 12.8954C100.917 12.0758 98.8017 12.0857 97.138 12.9213C96.9129 13.0345 96.7021 13.1564 96.5002 13.2905L96.2518 13.4468L27.0662 53.5389L26.7975 53.6621C26.4521 53.8195 26.1037 54.0223 25.7751 54.2564C24.4631 55.1966 23.5918 56.5886 23.31 58.1478C23.2682 58.3838 23.2362 58.6253 23.2227 58.8688L23.3309 125.226L60.2074 68.0717C64.8494 60.4933 74.9654 58.0503 84.3564 58.1844L95.3769 58.4749L30.439 162.616L38.0936 167.023L103.809 58.5808L132.856 58.4749L67.3107 169.654L94.6247 185.366L97.8887 187.241C99.2693 187.802 100.896 187.831 102.288 187.327L174.567 145.441L160.748 153.449L122.53 91.6383ZM128.133 172.351L100.545 129.05L117.387 100.472L153.618 157.58L128.133 172.351Z" fill="#2D374B"/>
<path d="M100.551 129.053L128.139 172.353L153.624 157.584L117.393 100.475L100.551 129.053Z" fill="#28A0F0"/>
<path d="M176.835 140.213L176.817 128.38L137.227 66.7183L122.539 91.6412L160.758 153.452L174.577 145.444C175.932 144.344 176.752 142.728 176.838 140.985L176.835 140.213Z" fill="#28A0F0"/>
<path d="M10.9297 151.373L30.4441 162.617L95.3815 58.4763L84.361 58.1858C74.9715 58.0527 64.8555 60.4942 60.2125 68.0726L23.3358 125.228L10.9297 144.289V151.373Z" fill="white"/>
<path d="M132.86 58.4741L103.813 58.58L38.0977 167.022L61.0675 180.246L67.3133 169.653L132.86 58.4741Z" fill="white"/>
<path d="M189.071 58.3254C188.829 52.2508 185.539 46.6908 180.388 43.4531L108.177 1.92595C103.081 -0.639921 96.7146 -0.643634 91.6084 1.92472C91.0057 2.22869 21.3853 42.6064 21.3853 42.6064C20.4217 43.0676 19.4938 43.6178 18.6212 44.2428C14.0223 47.5399 11.2189 52.662 10.9297 58.2883V144.29L23.3358 125.228L23.2276 58.8692C23.2423 58.6267 23.2731 58.3867 23.3149 58.1517C23.5955 56.59 24.468 55.198 25.7797 54.2568C26.1083 54.0228 96.9165 13.035 97.1417 12.9218C98.8068 12.0862 100.921 12.0763 102.587 12.8959L173.864 53.8936C175.55 54.9679 176.607 56.7894 176.701 58.7806V140.982C176.614 142.724 175.925 144.34 174.57 145.44L160.751 153.448L153.621 157.581L128.137 172.35L102.292 187.327C100.9 187.83 99.2719 187.802 97.8923 187.241L67.3144 169.653L61.0676 180.247L88.5478 196.068C89.4563 196.585 90.2659 197.042 90.9305 197.417C91.9592 197.994 92.6609 198.379 92.9083 198.5C94.8609 199.448 97.6706 200 100.203 200C102.524 200 104.789 199.574 106.932 198.735L182 155.262C186.308 151.923 188.843 146.889 189.071 141.436V58.3254Z" fill="#96BEDC"/>
</svg>

<svg xmlns="http://www.w3.org/2000/svg" width="200" height="200" fill="none"><path fill="#2D374B" d="m122.53 91.638 14.688-24.923 39.59 61.662.018 11.834-.129-81.43a6.14 6.14 0 0 0-2.837-4.888l-71.276-40.998c-1.667-.82-3.782-.81-5.446.026a6 6 0 0 0-.638.37l-.248.156-69.186 40.092-.268.123c-.346.157-.694.36-1.023.594a6.11 6.11 0 0 0-2.552 4.613l.108 66.357 36.876-57.154c4.642-7.579 14.758-10.022 24.15-9.888l11.02.29-64.938 104.142 7.655 4.407 65.715-108.442 29.047-.106-65.545 111.179 27.314 15.712 3.264 1.875a6.26 6.26 0 0 0 4.399.086l72.279-41.886-13.819 8.008zm5.603 80.713-27.588-43.301 16.842-28.578 36.231 57.108z"/><path fill="#28A0F0" d="m100.551 129.053 27.588 43.3 25.485-14.769-36.231-57.109zM176.835 140.213l-.018-11.833-39.59-61.662-14.688 24.923 38.219 61.811 13.819-8.008a6.12 6.12 0 0 0 2.261-4.459z"/><path fill="#fff" d="m10.93 151.373 19.514 11.244 64.938-104.14-11.021-.291c-9.39-.133-19.505 2.308-24.149 9.887l-36.876 57.155-12.406 19.061zM132.86 58.474l-29.047.106-65.715 108.442 22.97 13.224 6.245-10.593z"/><path fill="#96BEDC" d="M189.071 58.325c-.242-6.074-3.532-11.634-8.683-14.872L108.177 1.926c-5.096-2.566-11.462-2.57-16.569-.001-.602.304-70.223 40.681-70.223 40.681a18.4 18.4 0 0 0-2.764 1.637c-4.599 3.297-7.402 8.419-7.691 14.045v86.002l12.406-19.062-.108-66.359q.023-.364.087-.717a6.1 6.1 0 0 1 2.465-3.895c.328-.234 71.136-41.222 71.362-41.335 1.665-.836 3.779-.846 5.445-.026l71.277 40.998a6.14 6.14 0 0 1 2.837 4.887v82.201c-.087 1.742-.776 3.358-2.131 4.458l-13.819 8.008-7.13 4.133-25.484 14.769-25.845 14.977a6.27 6.27 0 0 1-4.4-.086l-30.578-17.588-6.246 10.594 27.48 15.821c.908.517 1.718.974 2.382 1.349 1.03.577 1.73.962 1.978 1.083 1.953.948 4.763 1.5 7.295 1.5 2.321 0 4.586-.426 6.729-1.265L182 155.262c4.308-3.339 6.843-8.373 7.071-13.826z"/></svg>
